Newaita-dark/apps/22/preferences-desktop-color.svg

<?xml version="1.0" encoding="UTF-8"?>
<svg xmlns="http://www.w3.org/2000/svg" xmlns:xlink="http://www.w3.org/1999/xlink" width="22pt" height="22pt" viewBox="0 0 22 22" version="1.1">
<defs>
<linearGradient id="linear0" gradientUnits="userSpaceOnUse" x1="254" y1="233.5" x2="254" y2="254.666672" gradientTransform="matrix(0.0429729,0,0,0.0429729,-0.00000262285,8.851747)">
<stop offset="0" style="stop-color:rgb(0%,0%,0%);stop-opacity:0.27451;"/>
<stop offset="1" style="stop-color:rgb(0%,0%,0%);stop-opacity:0;"/>
</linearGradient>
<radialGradient id="radial0" gradientUnits="userSpaceOnUse" cx="450.908936" cy="189.579361" fx="450.908936" fy="189.579361" r="21.166656" gradientTransform="matrix(0.000000119742,-0.0537161,-0.0966889,-0.0000000698078,35.385024,43.334373)">
<stop offset="0" style="stop-color:rgb(0%,0%,0%);stop-opacity:0.313725;"/>
<stop offset="0.222222" style="stop-color:rgb(0%,0%,0%);stop-opacity:0.27451;"/>
<stop offset="1" style="stop-color:rgb(0%,0%,0%);stop-opacity:0;"/>
</radialGradient>
<radialGradient id="radial1" gradientUnits="userSpaceOnUse" cx="450.908936" cy="189.579361" fx="450.908936" fy="189.579361" r="21.166656" gradientTransform="matrix(-0.000000119742,0.0537161,0.0966889,0.0000000698078,-13.554817,-5.56256)">
<stop offset="0" style="stop-color:rgb(0%,0%,0%);stop-opacity:0.313725;"/>
<stop offset="0.222222" style="stop-color:rgb(0%,0%,0%);stop-opacity:0.27451;"/>
<stop offset="1" style="stop-color:rgb(0%,0%,0%);stop-opacity:0;"/>
</radialGradient>
<radialGradient id="radial2" gradientUnits="userSpaceOnUse" cx="450.908936" cy="189.579361" fx="450.908936" fy="189.579361" r="21.166656" gradientTransform="matrix(-0.000000119742,-0.0537161,0.0966889,-0.0000000698078,-13.554817,43.334373)">
<stop offset="0" style="stop-color:rgb(0%,0%,0%);stop-opacity:0.313725;"/>
<stop offset="0.222222" style="stop-color:rgb(0%,0%,0%);stop-opacity:0.27451;"/>
<stop offset="1" style="stop-color:rgb(0%,0%,0%);stop-opacity:0;"/>
</radialGradient>
<radialGradient id="radial3" gradientUnits="userSpaceOnUse" cx="450.908936" cy="189.579361" fx="450.908936" fy="189.579361" r="21.166656" gradientTransform="matrix(0.000000119742,0.0537161,-0.0966889,0.0000000698078,35.385023,-5.56256)">
<stop offset="0" style="stop-color:rgb(0%,0%,0%);stop-opacity:0.313725;"/>
<stop offset="0.222222" style="stop-color:rgb(0%,0%,0%);stop-opacity:0.27451;"/>
<stop offset="1" style="stop-color:rgb(0%,0%,0%);stop-opacity:0;"/>
</radialGradient>
<linearGradient id="linear1" gradientUnits="userSpaceOnUse" x1="127" y1="-31.083334" x2="127" y2="-158.083328" >
<stop offset="0" style="stop-color:rgb(61.176471%,80%,39.607843%);stop-opacity:1;"/>
<stop offset="1" style="stop-color:rgb(68.235294%,83.529412%,50.588235%);stop-opacity:1;"/>
</linearGradient>
<linearGradient id="linear2" gradientUnits="userSpaceOnUse" x1="381" y1="-31.083334" x2="381" y2="-158.083328" >
<stop offset="0" style="stop-color:rgb(100%,93.333333%,34.509804%);stop-opacity:1;"/>
<stop offset="1" style="stop-color:rgb(100%,94.509804%,46.27451%);stop-opacity:1;"/>
</linearGradient>
<linearGradient id="linear3" gradientUnits="userSpaceOnUse" x1="127" y1="222.916672" x2="127" y2="95.916664" >
<stop offset="0" style="stop-color:rgb(49.411765%,34.117647%,76.078431%);stop-opacity:1;"/>
<stop offset="1" style="stop-color:rgb(58.431373%,45.882353%,80.392157%);stop-opacity:1;"/>
</linearGradient>
<linearGradient id="linear4" gradientUnits="userSpaceOnUse" x1="127" y1="95.916664" x2="127" y2="-31.083334" >
<stop offset="0" style="stop-color:rgb(100%,43.921569%,26.27451%);stop-opacity:1;"/>
<stop offset="1" style="stop-color:rgb(100%,54.117647%,39.607843%);stop-opacity:1;"/>
</linearGradient>
<linearGradient id="linear5" gradientUnits="userSpaceOnUse" x1="381" y1="222.916672" x2="381" y2="95.916664" >
<stop offset="0" style="stop-color:rgb(16.078431%,71.372549%,96.470588%);stop-opacity:1;"/>
<stop offset="1" style="stop-color:rgb(30.980392%,76.470588%,96.862745%);stop-opacity:1;"/>
</linearGradient>
<linearGradient id="linear6" gradientUnits="userSpaceOnUse" x1="381" y1="95.916664" x2="381" y2="-31.083334" >
<stop offset="0" style="stop-color:rgb(92.54902%,25.098039%,47.843137%);stop-opacity:1;"/>
<stop offset="1" style="stop-color:rgb(94.117647%,38.431373%,57.254902%);stop-opacity:1;"/>
</linearGradient>
<linearGradient id="linear7" gradientUnits="userSpaceOnUse" x1="254" y1="95.916664" x2="254" y2="-31.083334" >
<stop offset="0" style="stop-color:rgb(93.72549%,32.54902%,31.372549%);stop-opacity:1;"/>
<stop offset="1" style="stop-color:rgb(89.803922%,45.098039%,45.098039%);stop-opacity:1;"/>
</linearGradient>
<linearGradient id="linear8" gradientUnits="userSpaceOnUse" x1="254" y1="222.916672" x2="254" y2="95.916664" >
<stop offset="0" style="stop-color:rgb(36.078431%,41.960784%,75.294118%);stop-opacity:1;"/>
<stop offset="1" style="stop-color:rgb(47.45098%,52.54902%,79.607843%);stop-opacity:1;"/>
</linearGradient>
<linearGradient id="linear9" gradientUnits="userSpaceOnUse" x1="254" y1="-31.083334" x2="254" y2="-158.083328" >
<stop offset="0" style="stop-color:rgb(83.137255%,88.235294%,34.117647%);stop-opacity:1;"/>
<stop offset="1" style="stop-color:rgb(86.27451%,90.588235%,45.882353%);stop-opacity:1;"/>
</linearGradient>
</defs>
<g id="surface1">
<path style=" stroke:none;fill-rule:nonzero;fill:url(#linear0);" d="M 4.546875 18.851562 L 17.28125 18.851562 L 17.28125 19.828125 L 4.546875 19.828125 Z M 4.546875 18.851562 "/>
<path style=" stroke:none;fill-rule:nonzero;fill:url(#radial0);" d="M 17.28125 18.886719 L 19.101562 18.886719 L 19.101562 17.976562 L 17.28125 17.976562 Z M 17.28125 18.886719 "/>
<path style=" stroke:none;fill-rule:nonzero;fill:url(#radial1);" d="M 4.546875 18.886719 L 2.730469 18.886719 L 2.730469 19.796875 L 4.546875 19.796875 Z M 4.546875 18.886719 "/>
<path style=" stroke:none;fill-rule:nonzero;fill:url(#radial2);" d="M 4.546875 18.886719 L 2.730469 18.886719 L 2.730469 17.976562 L 4.546875 17.976562 Z M 4.546875 18.886719 "/>
<path style=" stroke:none;fill-rule:nonzero;fill:url(#radial3);" d="M 17.28125 18.886719 L 19.101562 18.886719 L 19.101562 19.796875 L 17.28125 19.796875 Z M 17.28125 18.886719 "/>
<path style="fill-rule:nonzero;fill:url(#linear1);stroke-width:3;stroke-linecap:round;stroke-linejoin:miter;stroke:rgb(12.941177%,12.941177%,12.941177%);stroke-opacity:1;stroke-miterlimit:4;" d="M 84.628282 -158.096343 L 190.52726 -158.096343 C 202.162513 -158.096343 211.707056 -148.6427 211.707056 -136.916548 L 211.707056 -31.10847 C 211.707056 -19.382317 202.162513 -9.928674 190.52726 -9.928674 L 84.628282 -9.928674 C 72.99303 -9.928674 63.539387 -19.382317 63.539387 -31.10847 L 63.539387 -136.916548 C 63.539387 -148.6427 72.99303 -158.096343 84.628282 -158.096343 Z M 84.628282 -158.096343 " transform="matrix(0.0429729,0,0,0.0429729,0,9.239163)"/>
<path style="fill-rule:nonzero;fill:url(#linear2);stroke-width:3;stroke-linecap:round;stroke-linejoin:miter;stroke:rgb(12.941177%,12.941177%,12.941177%);stroke-opacity:1;stroke-miterlimit:4;" d="M 317.515133 -158.096343 L 423.323211 -158.096343 C 435.049364 -158.096343 444.503007 -148.6427 444.503007 -136.916548 L 444.503007 -31.10847 C 444.503007 -19.382317 435.049364 -9.928674 423.323211 -9.928674 L 317.515133 -9.928674 C 305.78898 -9.928674 296.335338 -19.382317 296.335338 -31.10847 L 296.335338 -136.916548 C 296.335338 -148.6427 305.78898 -158.096343 317.515133 -158.096343 Z M 317.515133 -158.096343 " transform="matrix(0.0429729,0,0,0.0429729,0,9.239163)"/>
<path style="fill-rule:nonzero;fill:url(#linear3);stroke-width:3;stroke-linecap:round;stroke-linejoin:miter;stroke:rgb(12.941177%,12.941177%,12.941177%);stroke-opacity:1;stroke-miterlimit:4;" d="M 84.628282 74.790508 L 190.52726 74.790508 C 202.162513 74.790508 211.707056 84.244151 211.707056 95.879403 L 211.707056 201.778381 C 211.707056 213.413634 202.162513 222.958177 190.52726 222.958177 L 84.628282 222.958177 C 72.99303 222.958177 63.539387 213.413634 63.539387 201.778381 L 63.539387 95.879403 C 63.539387 84.244151 72.99303 74.790508 84.628282 74.790508 Z M 84.628282 74.790508 " transform="matrix(0.0429729,0,0,0.0429729,0,9.239163)"/>
<path style="fill-rule:nonzero;fill:url(#linear4);stroke-width:3;stroke-linecap:round;stroke-linejoin:miter;stroke:rgb(12.941177%,12.941177%,12.941177%);stroke-opacity:1;stroke-miterlimit:4;" d="M 63.539387 -31.10847 L 190.52726 -31.10847 L 190.52726 95.879403 L 63.539387 95.879403 Z M 63.539387 -31.10847 " transform="matrix(0.0429729,0,0,0.0429729,0,9.239163)"/>
<path style="fill-rule:nonzero;fill:url(#linear5);stroke-width:3;stroke-linecap:round;stroke-linejoin:miter;stroke:rgb(12.941177%,12.941177%,12.941177%);stroke-opacity:1;stroke-miterlimit:4;" d="M 317.515133 74.790508 L 423.323211 74.790508 C 435.049364 74.790508 444.503007 84.244151 444.503007 95.879403 L 444.503007 201.778381 C 444.503007 213.413634 435.049364 222.958177 423.323211 222.958177 L 317.515133 222.958177 C 305.78898 222.958177 296.335338 213.413634 296.335338 201.778381 L 296.335338 95.879403 C 296.335338 84.244151 305.78898 74.790508 317.515133 74.790508 Z M 317.515133 74.790508 " transform="matrix(0.0429729,0,0,0.0429729,0,9.239163)"/>
<path style="fill-rule:nonzero;fill:url(#linear6);stroke-width:3;stroke-linecap:round;stroke-linejoin:miter;stroke:rgb(12.941177%,12.941177%,12.941177%);stroke-opacity:1;stroke-miterlimit:4;" d="M 317.515133 -31.10847 L 444.503007 -31.10847 L 444.503007 95.879403 L 317.515133 95.879403 Z M 317.515133 -31.10847 " transform="matrix(0.0429729,0,0,0.0429729,0,9.239163)"/>
<path style="fill-rule:nonzero;fill:url(#linear7);stroke-width:3;stroke-linecap:round;stroke-linejoin:miter;stroke:rgb(12.941177%,12.941177%,12.941177%);stroke-opacity:1;stroke-miterlimit:4;" d="M 190.52726 -31.10847 L 317.515133 -31.10847 L 317.515133 95.879403 L 190.52726 95.879403 Z M 190.52726 -31.10847 " transform="matrix(0.0429729,0,0,0.0429729,0,9.239163)"/>
<path style="fill-rule:nonzero;fill:url(#linear8);stroke-width:3;stroke-linecap:round;stroke-linejoin:miter;stroke:rgb(12.941177%,12.941177%,12.941177%);stroke-opacity:1;stroke-miterlimit:4;" d="M 190.52726 95.879403 L 317.515133 95.879403 L 317.515133 222.958177 L 190.52726 222.958177 Z M 190.52726 95.879403 " transform="matrix(0.0429729,0,0,0.0429729,0,9.239163)"/>
<path style="fill-rule:nonzero;fill:url(#linear9);stroke-width:3;stroke-linecap:round;stroke-linejoin:miter;stroke:rgb(12.941177%,12.941177%,12.941177%);stroke-opacity:1;stroke-miterlimit:4;" d="M 190.52726 -158.096343 L 317.515133 -158.096343 L 317.515133 -31.10847 L 190.52726 -31.10847 Z M 190.52726 -158.096343 " transform="matrix(0.0429729,0,0,0.0429729,0,9.239163)"/>
<path style=" stroke:none;fill-rule:nonzero;fill:rgb(100%,100%,100%);fill-opacity:0.784314;" d="M 3.636719 2.445312 C 3.132812 2.445312 2.730469 2.851562 2.730469 3.355469 L 2.730469 3.480469 C 2.730469 2.976562 3.132812 2.570312 3.636719 2.570312 L 18.191406 2.570312 C 18.695312 2.570312 19.101562 2.976562 19.101562 3.480469 L 19.101562 3.355469 C 19.101562 2.851562 18.695312 2.445312 18.191406 2.445312 Z M 3.636719 2.445312 "/>
<path style=" stroke:none;fill-rule:nonzero;fill:rgb(0%,0%,0%);fill-opacity:0.235294;" d="M 3.636719 18.828125 C 3.132812 18.828125 2.730469 18.421875 2.730469 17.917969 L 2.730469 17.796875 C 2.730469 18.300781 3.132812 18.703125 3.636719 18.703125 L 18.191406 18.703125 C 18.695312 18.703125 19.101562 18.300781 19.101562 17.796875 L 19.101562 17.917969 C 19.101562 18.421875 18.695312 18.828125 18.191406 18.828125 Z M 3.636719 18.828125 "/>
<path style=" stroke:none;fill-rule:nonzero;fill:rgb(12.941177%,12.941177%,12.941177%);fill-opacity:1;" d="M 3.636719 2.382812 C 3.101562 2.382812 2.664062 2.816406 2.664062 3.355469 L 2.664062 17.910156 C 2.664062 18.449219 3.101562 18.882812 3.636719 18.882812 L 18.191406 18.882812 C 18.730469 18.882812 19.164062 18.449219 19.164062 17.910156 L 19.164062 3.355469 C 19.164062 2.816406 18.730469 2.382812 18.191406 2.382812 Z M 3.636719 2.511719 L 18.191406 2.511719 C 18.660156 2.511719 19.035156 2.886719 19.035156 3.355469 L 19.035156 17.910156 C 19.035156 18.378906 18.660156 18.753906 18.191406 18.753906 L 3.636719 18.753906 C 3.167969 18.753906 2.792969 18.378906 2.792969 17.910156 L 2.792969 3.355469 C 2.792969 2.886719 3.167969 2.511719 3.636719 2.511719 Z M 3.636719 2.511719 "/>
</g>
</svg>

<svg xmlns="http://www.w3.org/2000/svg" width="22pt" height="22pt" viewBox="0 0 22 22"><defs><linearGradient id="a" gradientUnits="userSpaceOnUse" x1="254" y1="233.5" x2="254" y2="254.667" gradientTransform="matrix(.04297 0 0 .04297 0 8.852)"><stop offset="0" stop-opacity=".275"/><stop offset="1" stop-opacity="0"/></linearGradient><radialGradient id="b" gradientUnits="userSpaceOnUse" cx="450.909" cy="189.579" fx="450.909" fy="189.579" r="21.167" gradientTransform="matrix(0 -.05372 -.09669 0 35.385 43.334)"><stop offset="0" stop-opacity=".314"/><stop offset=".222" stop-opacity=".275"/><stop offset="1" stop-opacity="0"/></radialGradient><radialGradient id="c" gradientUnits="userSpaceOnUse" cx="450.909" cy="189.579" fx="450.909" fy="189.579" r="21.167" gradientTransform="matrix(0 .05372 .09669 0 -13.555 -5.563)"><stop offset="0" stop-opacity=".314"/><stop offset=".222" stop-opacity=".275"/><stop offset="1" stop-opacity="0"/></radialGradient><radialGradient id="d" gradientUnits="userSpaceOnUse" cx="450.909" cy="189.579" fx="450.909" fy="189.579" r="21.167" gradientTransform="matrix(0 -.05372 .09669 0 -13.555 43.334)"><stop offset="0" stop-opacity=".314"/><stop offset=".222" stop-opacity=".275"/><stop offset="1" stop-opacity="0"/></radialGradient><radialGradient id="e" gradientUnits="userSpaceOnUse" cx="450.909" cy="189.579" fx="450.909" fy="189.579" r="21.167" gradientTransform="matrix(0 .05372 -.09669 0 35.385 -5.563)"><stop offset="0" stop-opacity=".314"/><stop offset=".222" stop-opacity=".275"/><stop offset="1" stop-opacity="0"/></radialGradient><linearGradient id="f" gradientUnits="userSpaceOnUse" x1="127" y1="-31.083" x2="127" y2="-158.083"><stop offset="0" stop-color="#9ccc65"/><stop offset="1" stop-color="#aed581"/></linearGradient><linearGradient id="g" gradientUnits="userSpaceOnUse" x1="381" y1="-31.083" x2="381" y2="-158.083"><stop offset="0" stop-color="#ffee58"/><stop offset="1" stop-color="#fff176"/></linearGradient><linearGradient id="h" gradientUnits="userSpaceOnUse" x1="127" y1="222.917" x2="127" y2="95.917"><stop offset="0" stop-color="#7e57c2"/><stop offset="1" stop-color="#9575cd"/></linearGradient><linearGradient id="i" gradientUnits="userSpaceOnUse" x1="127" y1="95.917" x2="127" y2="-31.083"><stop offset="0" stop-color="#ff7043"/><stop offset="1" stop-color="#ff8a65"/></linearGradient><linearGradient id="j" gradientUnits="userSpaceOnUse" x1="381" y1="222.917" x2="381" y2="95.917"><stop offset="0" stop-color="#29b6f6"/><stop offset="1" stop-color="#4fc3f7"/></linearGradient><linearGradient id="k" gradientUnits="userSpaceOnUse" x1="381" y1="95.917" x2="381" y2="-31.083"><stop offset="0" stop-color="#ec407a"/><stop offset="1" stop-color="#f06292"/></linearGradient><linearGradient id="l" gradientUnits="userSpaceOnUse" x1="254" y1="95.917" x2="254" y2="-31.083"><stop offset="0" stop-color="#ef5350"/><stop offset="1" stop-color="#e57373"/></linearGradient><linearGradient id="m" gradientUnits="userSpaceOnUse" x1="254" y1="222.917" x2="254" y2="95.917"><stop offset="0" stop-color="#5c6bc0"/><stop offset="1" stop-color="#7986cb"/></linearGradient><linearGradient id="n" gradientUnits="userSpaceOnUse" x1="254" y1="-31.083" x2="254" y2="-158.083"><stop offset="0" stop-color="#d4e157"/><stop offset="1" stop-color="#dce775"/></linearGradient></defs><path d="M4.547 18.852H17.28v.976H4.547zm0 0" fill="url(#a)"/><path d="M17.281 18.887h1.82v-.91h-1.82zm0 0" fill="url(#b)"/><path d="M4.547 18.887H2.73v.91h1.817zm0 0" fill="url(#c)"/><path d="M4.547 18.887H2.73v-.91h1.817zm0 0" fill="url(#d)"/><path d="M17.281 18.887h1.82v.91h-1.82zm0 0" fill="url(#e)"/><path d="M84.628-158.096h105.9c11.635 0 21.18 9.453 21.18 21.18v105.808c0 11.726-9.545 21.18-21.18 21.18h-105.9c-11.635 0-21.089-9.454-21.089-21.18v-105.809c0-11.726 9.454-21.18 21.09-21.18zm0 0" transform="matrix(.04297 0 0 .04297 0 9.24)" fill="url(#f)" stroke-width="3" stroke-linecap="round" stroke="#212121"/><path d="M317.515-158.096h105.808a21.143 21.143 0 0 1 21.18 21.18v105.808a21.143 21.143 0 0 1-21.18 21.18H317.515a21.143 21.143 0 0 1-21.18-21.18v-105.809a21.143 21.143 0 0 1 21.18-21.18zm0 0" transform="matrix(.04297 0 0 .04297 0 9.24)" fill="url(#g)" stroke-width="3" stroke-linecap="round" stroke="#212121"/><path d="M84.628 74.79h105.9c11.635 0 21.18 9.454 21.18 21.09v105.898c0 11.636-9.545 21.18-21.18 21.18h-105.9c-11.635 0-21.089-9.544-21.089-21.18V95.88c0-11.635 9.454-21.088 21.09-21.088zm0 0" transform="matrix(.04297 0 0 .04297 0 9.24)" fill="url(#h)" stroke-width="3" stroke-linecap="round" stroke="#212121"/><path d="M63.54-31.108h126.987V95.879H63.54zm0 0" transform="matrix(.04297 0 0 .04297 0 9.24)" fill="url(#i)" stroke-width="3" stroke-linecap="round" stroke="#212121"/><path d="M317.515 74.79h105.808c11.726 0 21.18 9.454 21.18 21.09v105.898c0 11.636-9.454 21.18-21.18 21.18H317.515c-11.726 0-21.18-9.544-21.18-21.18V95.88c0-11.635 9.454-21.088 21.18-21.088zm0 0" transform="matrix(.04297 0 0 .04297 0 9.24)" fill="url(#j)" stroke-width="3" stroke-linecap="round" stroke="#212121"/><path d="M317.515-31.108h126.988V95.879H317.515zm0 0" transform="matrix(.04297 0 0 .04297 0 9.24)" fill="url(#k)" stroke-width="3" stroke-linecap="round" stroke="#212121"/><path d="M190.527-31.108h126.988V95.879H190.527zm0 0" transform="matrix(.04297 0 0 .04297 0 9.24)" fill="url(#l)" stroke-width="3" stroke-linecap="round" stroke="#212121"/><path d="M190.527 95.88h126.988v127.078H190.527zm0 0" transform="matrix(.04297 0 0 .04297 0 9.24)" fill="url(#m)" stroke-width="3" stroke-linecap="round" stroke="#212121"/><path d="M190.527-158.096h126.988v126.988H190.527zm0 0" transform="matrix(.04297 0 0 .04297 0 9.24)" fill="url(#n)" stroke-width="3" stroke-linecap="round" stroke="#212121"/><path d="M3.637 2.445a.905.905 0 0 0-.907.91v.125c0-.503.403-.91.907-.91H18.19c.504 0 .91.407.91.91v-.125a.909.909 0 0 0-.91-.91zm0 0" fill="#fff" fill-opacity=".784"/><path d="M3.637 18.828a.905.905 0 0 1-.907-.91v-.121c0 .504.403.906.907.906H18.19c.504 0 .91-.402.91-.906v.121c0 .504-.406.91-.91.91zm0 0" fill-opacity=".235"/><path d="M3.637 2.383a.973.973 0 0 0-.973.972V17.91c0 .54.438.973.973.973H18.19a.97.97 0 0 0 .973-.973V3.355a.97.97 0 0 0-.973-.972zm0 .129H18.19a.84.84 0 0 1 .844.843V17.91a.84.84 0 0 1-.844.844H3.637a.84.84 0 0 1-.844-.844V3.355a.84.84 0 0 1 .844-.843zm0 0" fill="#212121"/></svg>
